X: 22
T:Gan Ainm
M:6/8
L:1/8
C:Thurlough O'Carolan
S:Comlete Works of . . . (#179)
R:Slow Double Jig
Z:Ed Wosika
K:D
(D3E/2F/2G/2) A2 B | ABd .FE/2D |EFA B2 d/2e/2 | fg/2f/2e/2d/2 B2 A | 
(D3E/2F/2G/2) A2 B | ABd .FE/2D | GA/2G/2F/2E/2 FG/2F/2E/2D/2 | 
EE/2F/2G/2A/2 B2 c | d/2f/2e/2d/2c/2e/2 d2 c/2B/2 | B/2A/2G/2A/2B/2c/2 A2 B/2c/2 | dFd FdF | {F}EDD D2 z|| 
dDd de/2d/2c/2B/2 | .AB/2d FED | eEe/2f/2 e2 d/2e/2 | fg/2f/2e/2d/2 B2 (3ABc) | 
dAd d/2c/2d/2e/2f/2e/2 | d/2e/2d/2B/2A/2G/2 .FE/2D | G/2A/2BG F/2G/2AF | E/2F/2GE .FE/2D|
FAA .AF/2D | GBB .Bc/2d | AF/2A/2F GE/2G/2E | {G}FDD D2 z ||

